X:582
T:Galtee Reel, The
R:reel
S:Louise Costello
D:Fintan Vallely: Traditional Irish Flute Music
Z:id:hn-reel-582
M:C|
K:Ador
aged cAAG|EA~A2 EA~A2|aged cAAc|BGGF GABd|
aged cAAG|EA~A2 a2ga|bgag eaaf|1 gedB BA~A2:|2 gedB BAAB||
|:~c3B cded|c2Bc dBGB|~c3B cded|cBAG EAAB|
~c3B cded|cA~A2 a2ga|bgag eaaf|1 gedB cAAB:|2 gedB cA~A2||
